src/objects/clothing/1F461.svg

<?xml version="1.0" encoding="UTF-8"?>
<svg id="emoji" xmlns="http://www.w3.org/2000/svg" viewBox="0 0 72 72">
  <g id="grid">
    <path d="m68,4v64H4V4h64M72,0H0v72h72V0Z" fill="#b3b3b3"/>
    <path d="m12.923,10.9583h46.1539c1.0621,0,1.9231.861,1.9231,1.9231h0v46.1538c0,1.0621-.861,1.9231-1.9231,1.9231H12.9231c-1.0621,0-1.9231-.861-1.9231-1.9231h0V12.8813c0-1.062.861-1.923,1.923-1.923h0Z" fill="none" stroke="#00a5ff" stroke-miterlimit="10" stroke-width=".1"/>
    <rect x="16" y="4" width="40" height="64" rx="2.2537" ry="2.2537" fill="none" stroke="#00a5ff" stroke-miterlimit="10" stroke-width=".1"/>
    <rect x="4" y="16" width="64" height="40" rx="2.2537" ry="2.2537" fill="none" stroke="#00a5ff" stroke-miterlimit="10" stroke-width=".1"/>
    <circle cx="36" cy="36" r="29" fill="none" stroke="#00a5ff" stroke-miterlimit="10" stroke-width=".1"/>
  </g>
  <g id="color">
    <polyline points="11.0443 30.5333 10.7943 58.9583 19.672 58.9583 22.4255 36.7408" fill="#6a462f"/>
    <polyline points="11.2095 34.5333 11.7095 58.7083 18.7988 58.9583 20.7988 40.5333" fill="#6a462f"/>
    <path d="m59.0643,52.3098c2.7748.0391,5.9062-.1885,8.4416-1.171.7079,6.5249-.5933,8.2515-3.991,9.7438-5.6629,2.487-19.5676,1.2919-23.3356-1.4893-4.5676-3.3713-2.5607-3.9694-10.3496-14.656-6.1889-8.4912-18.7005-13.9286-18.7005-13.9286v-5.7697s20.7464,6.6699,25.0042,17.8349c.7983,2.0934,2.8151,3.4373,4.3049,4.8808,0,0,7.2775,4.3951,18.626,4.5551Z" fill="#6a462f"/>
    <polyline points="41.3426 57.5874 45.3648 36.7408 58.0947 39.2711 55.3813 60.3034" fill="#a57939"/>
  </g>
  <g id="line">
    <polyline points="11.2095 34.5333 11.2095 58.9583 19.0488 58.9583 21.0488 40.5333" fill="none" stroke="#000" stroke-linecap="round" stroke-linejoin="round" stroke-width="2"/>
    <path d="m59.497,53.1771c2.7511-.3643,5.4735-1.0558,8.0089-2.0383.7079,6.5249-.5933,8.2515-3.991,9.7438-5.6629,2.487-19.5676,1.2919-23.3356-1.4893-4.5676-3.3713-2.5607-3.9694-10.3496-14.656-6.1889-8.4912-18.7005-13.9286-18.7005-13.9286v-5.7697s20.7464,6.6699,25.0042,17.8349c.7983,2.0934,1.9924,3.8504,3.4823,5.2939" fill="none" stroke="#000" stroke-linecap="round" stroke-linejoin="round" stroke-width="2"/>
    <polyline points="41.7515 56.773 45.3648 36.7408 58.0947 39.2711 55.4813 59.3034" fill="none" stroke="#000" stroke-linecap="round" stroke-linejoin="round" stroke-width="2"/>
  </g>
</svg>

<svg id="emoji" viewBox="0 0 72 72" xmlns="http://www.w3.org/2000/svg">
  <g id="grid">
    <path fill="#b3b3b3" d="M68,4V68H4V4H68m4-4H0V72H72V0Z"/>
    <path fill="none" stroke="#00a5ff" stroke-miterlimit="10" stroke-width="0.1" d="M12.923,10.9583H59.0769A1.9231,1.9231,0,0,1,61,12.8814V59.0352a1.9231,1.9231,0,0,1-1.9231,1.9231H12.9231A1.9231,1.9231,0,0,1,11,59.0352V12.8813A1.923,1.923,0,0,1,12.923,10.9583Z"/>
    <rect x="16" y="4" rx="2.2537" width="40" height="64" fill="none" stroke="#00a5ff" stroke-miterlimit="10" stroke-width="0.1"/>
    <rect x="16" y="4" rx="2.2537" width="40" height="64" transform="translate(72) rotate(90)" fill="none" stroke="#00a5ff" stroke-miterlimit="10" stroke-width="0.1"/>
    <circle cx="36" cy="36" r="29" fill="none" stroke="#00a5ff" stroke-miterlimit="10" stroke-width="0.1"/>
  </g>
  <g id="color">
    <polyline fill="#6A462F" stroke="none" points="10.2943,30.5333 10.2943,58.9583 19.672,58.9583 22.4255,36.7408"/>
    <polyline fill="#6A462F" stroke="none" stroke-linecap="round" stroke-linejoin="round" stroke-miterlimit="10" stroke-width="2" points="11.2095,34.5333 11.2095,58.9583 19.0488,58.9583 21.0488,40.5333"/>
    <path fill="#6A462F" stroke="none" d="M59.0643,52.3098c2.7748,0.0391,5.9062-0.1885,8.4416-1.171c0.7079,6.5249-0.5933,8.2515-3.991,9.7438 c-5.6629,2.487-19.5676,1.2919-23.3356-1.4893c-4.5676-3.3713-2.5607-3.9694-10.3496-14.656 c-6.1889-8.4912-18.7005-13.9286-18.7005-13.9286V25.039c0,0,20.7464,6.6699,25.0042,17.8349 c0.7983,2.0934,2.8151,3.4373,4.3049,4.8808C40.4383,47.7547,47.7158,52.1498,59.0643,52.3098z"/>
    <polyline fill="#A57939" stroke="none" points="41.3426,57.5874 45.3648,36.7408 58.0947,39.2711 55.3813,60.3034"/>
  </g>
  <g id="hair"/>
  <g id="skin"/>
  <g id="skin-shadow"/>
  <g id="line">
    <polyline fill="none" stroke="#000000" stroke-linecap="round" stroke-linejoin="round" stroke-miterlimit="10" stroke-width="2" points="11.2095,34.5333 11.2095,58.9583 19.0488,58.9583 21.0488,40.5333"/>
    <path fill="none" stroke="#000000" stroke-linecap="round" stroke-linejoin="round" stroke-miterlimit="10" stroke-width="2" d="M59.497,53.1771c2.7511-0.3643,5.4735-1.0558,8.0089-2.0383c0.7079,6.5249-0.5933,8.2515-3.991,9.7438 c-5.6629,2.487-19.5676,1.2919-23.3356-1.4893c-4.5676-3.3713-2.5607-3.9694-10.3496-14.656 c-6.1889-8.4912-18.7005-13.9286-18.7005-13.9286V25.039c0,0,20.7464,6.6699,25.0042,17.8349 c0.7983,2.0934,1.9924,3.8504,3.4823,5.2939"/>
    <polyline fill="none" stroke="#000000" stroke-linecap="round" stroke-linejoin="round" stroke-miterlimit="10" stroke-width="2" points="41.7515,56.773 45.3648,36.7408 58.0947,39.2711 55.4813,59.3034"/>
  </g>
</svg>
